X:122
T: Shantou diao
N: C1616
O: China,Anhui, Chuxian
S: III, 592]
R: Shange]
M: 3/8
L: 1/16
K: Bb
f2 | =e2f2f2 | =e2f2g2 | f3gb2c2 | c2f6
c6c2 | c2b2c2g2 | f2g4f2 | f8
f2f2b8 | c2c4g2 | b2f4f2 | f2g4f2 | f8

@@@ Tune index: 6677
